public/assets/images/feature/07.svg

<svg width="60" height="60" viewBox="0 0 60 60" fill="none" xmlns="http://www.w3.org/2000/svg">
<path d="M14.6674 43.6007C14.4111 42.5884 13.4998 41.8339 12.409 41.8339C11.1205 41.8339 10.0723 42.8823 10.0723 44.1709C10.0723 45.4594 11.1205 46.508 12.409 46.508C13.4998 46.508 14.411 45.7534 14.6674 44.7412H21.1277C21.4426 44.7412 21.698 44.4862 21.698 44.1709V39.3143C22.3526 39.4087 23.0241 39.4906 23.7064 39.5617V50.3808H17.8161C17.5598 49.3687 16.6487 48.6146 15.5579 48.6146C14.2695 48.6146 13.2212 49.6626 13.2212 50.9511C13.2212 52.2395 14.2695 53.2881 15.5579 53.2881C16.6487 53.2881 17.5598 52.5336 17.8161 51.5213H24.2767C24.5916 51.5213 24.8469 51.2663 24.8469 50.9511V39.6694C25.6171 39.734 26.3977 39.7837 27.1823 39.8189V56.1713H21.2923C21.036 55.1591 20.1248 54.405 19.0341 54.405C17.7456 54.405 16.6973 55.453 16.6973 56.7415C16.6973 58.03 17.7456 59.0786 19.0341 59.0786C20.1248 59.0786 21.036 58.324 21.2923 57.3118H27.7525C28.0673 57.3118 28.3227 57.0568 28.3227 56.7415V39.8611C28.8827 39.8761 29.4429 39.8838 30.0011 39.8838C30.5591 39.8838 31.1194 39.8761 31.6794 39.8611V56.7414C31.6794 57.0565 31.9348 57.3116 32.2496 57.3116H38.7098C38.9661 58.3239 39.8773 59.0785 40.968 59.0785C42.2565 59.0785 43.3048 58.03 43.3048 56.7414C43.3048 55.4529 42.2565 54.4049 40.968 54.4049C39.8773 54.4049 38.9661 55.159 38.7098 56.1712H32.8198V39.8188C33.6045 39.7834 34.3849 39.7337 35.1552 39.6693V50.9509C35.1552 51.2661 35.4105 51.5212 35.7254 51.5212H42.186C42.4423 52.5334 43.3534 53.288 44.4442 53.288C45.7327 53.288 46.7809 52.2395 46.7809 50.9509C46.7809 49.6623 45.7327 48.6145 44.4442 48.6145C43.3534 48.6145 42.4423 49.3686 42.186 50.3807H36.2957V39.5616C36.978 39.4905 37.6495 39.4086 38.3041 39.3142V44.1708C38.3041 44.4859 38.5595 44.7411 38.8744 44.7411H45.3347C45.591 45.7533 46.5023 46.5079 47.5931 46.5079C48.8816 46.5079 49.9298 45.4594 49.9298 44.1708C49.9298 42.8823 48.8816 41.8338 47.5931 41.8338C46.5023 41.8338 45.5911 42.5883 45.3347 43.6006H39.4446V39.1343C44.5392 38.2669 48.3854 36.6602 48.3854 34.385V27.7934C48.3854 27.0359 47.9512 26.3543 47.1937 25.7478C47.9537 25.1398 48.3854 24.4555 48.3854 23.6962V17.1053C48.3854 16.3479 47.9511 15.6665 47.1935 15.0599C47.9537 14.4518 48.3854 13.7676 48.3854 13.0081V6.41676C48.3854 2.84523 38.9134 0.917969 30.0012 0.917969C21.0889 0.917969 11.6167 2.84523 11.6167 6.41676V13.0081C11.6167 13.7665 12.0473 14.45 12.8055 15.0573C12.0479 15.6645 11.6167 16.3472 11.6167 17.1052V23.6962C11.6167 24.4551 12.0479 25.139 12.8071 25.7467C12.0492 26.3535 11.6167 27.0357 11.6167 27.7934V34.385C11.6167 36.6603 15.4629 38.2669 20.5575 39.1343V43.6006H14.6674V43.6007ZM12.4091 45.3675C11.7496 45.3675 11.2127 44.8307 11.2127 44.1709C11.2127 43.5112 11.7496 42.9743 12.4091 42.9743C13.069 42.9743 13.6057 43.5112 13.6057 44.1709C13.6057 44.8307 13.0689 45.3675 12.4091 45.3675ZM15.5579 52.1475C14.8984 52.1475 14.3616 51.6107 14.3616 50.9509C14.3616 50.2916 14.8984 49.7548 15.5579 49.7548C16.2175 49.7548 16.7543 50.2916 16.7543 50.9509C16.7543 51.6108 16.2176 52.1475 15.5579 52.1475ZM19.0341 57.9381C18.3745 57.9381 17.8377 57.4013 17.8377 56.7415C17.8377 56.0822 18.3745 55.5454 19.0341 55.5454C19.6936 55.5454 20.2304 56.0822 20.2304 56.7415C20.2304 57.4014 19.6936 57.9381 19.0341 57.9381ZM40.9678 55.5454C41.6273 55.5454 42.1642 56.0822 42.1642 56.7415C42.1642 57.4014 41.6273 57.9381 40.9678 57.9381C40.3083 57.9381 39.7714 57.4013 39.7714 56.7415C39.7714 56.0822 40.3083 55.5454 40.9678 55.5454ZM44.4439 49.7549C45.1035 49.7549 45.6403 50.2918 45.6403 50.9511C45.6403 51.6109 45.1035 52.1477 44.4439 52.1477C43.7844 52.1477 43.2476 51.6108 43.2476 50.9511C43.2476 50.2916 43.7843 49.7549 44.4439 49.7549ZM47.5928 42.9742C48.2523 42.9742 48.7891 43.5111 48.7891 44.1708C48.7891 44.8306 48.2523 45.3674 47.5928 45.3674C46.9329 45.3674 46.3962 44.8306 46.3962 44.1708C46.3962 43.5111 46.933 42.9742 47.5928 42.9742ZM30.0009 2.05844C40.163 2.05844 47.2448 4.35543 47.2448 6.41676C47.2448 8.47809 40.163 10.7752 30.0009 10.7752C19.8389 10.7752 12.757 8.4782 12.757 6.41676C12.757 4.35531 19.8389 2.05844 30.0009 2.05844ZM12.757 13.0081V8.42523C15.5312 10.7044 22.9393 11.9155 30.0009 11.9155C37.0625 11.9155 44.4707 10.7044 47.2448 8.42523V13.0081C47.2448 15.0695 40.163 17.3664 30.0009 17.3664C19.8389 17.3664 12.757 15.0695 12.757 13.0081ZM13.7919 15.7068C17.1021 17.5393 23.6898 18.5069 30.0009 18.5069C36.3117 18.5069 42.8988 17.5394 46.2093 15.7071C46.8816 16.1659 47.2448 16.6414 47.2448 17.1053C47.2448 19.1668 40.163 21.4636 30.0009 21.4636C19.8389 21.4636 12.757 19.1666 12.757 17.1053C12.757 16.6412 13.1196 16.1657 13.7919 15.7068ZM12.757 23.6963V19.1138C15.5312 21.393 22.9393 22.6041 30.0009 22.6041C37.0625 22.6041 44.4707 21.393 47.2448 19.1138V23.6963C47.2448 25.7577 40.163 28.0546 30.0009 28.0546C19.8389 28.0546 12.757 25.7577 12.757 23.6963ZM13.7944 26.3963C17.1053 28.2279 23.6913 29.1951 30.0009 29.1951C36.3074 29.1951 42.8898 28.229 46.2023 26.3991C46.8745 26.8567 47.2447 27.3305 47.2447 27.7935C47.2447 29.8552 40.1628 32.1522 30.0008 32.1522C19.8388 32.1522 12.7569 29.8552 12.7569 27.7935C12.757 27.3299 13.1225 26.8548 13.7944 26.3963ZM12.757 34.3851V29.8021C15.5312 32.0814 22.9393 33.2925 30.0009 33.2925C37.0625 33.2925 44.4707 32.0814 47.2448 29.8021V34.3851C47.2448 36.4465 40.163 38.7434 30.0009 38.7434C19.8389 38.7434 12.757 36.4464 12.757 34.3851Z" fill="#0F62FE"/>
<path d="M38.8011 36.1461C39.5636 36.013 40.2976 35.8626 40.9822 35.6995C41.2887 35.6266 41.4778 35.3192 41.4049 35.0129C41.332 34.7061 41.0234 34.5162 40.7183 34.5902C40.0559 34.7478 39.3448 34.8931 38.605 35.0223C38.2948 35.0769 38.0872 35.372 38.1414 35.6821C38.1942 35.9852 38.4814 36.1999 38.8011 36.1461Z" fill="#0F62FE"/>
<path d="M43.134 35.1123C43.8176 34.9079 44.4496 34.6841 45.0125 34.4474C45.3027 34.3249 45.4387 33.9908 45.3169 33.7006C45.1944 33.41 44.8599 33.2747 44.5699 33.3961C44.0448 33.6171 43.4518 33.8271 42.8073 34.0197C42.5058 34.11 42.3342 34.4273 42.4244 34.7292C42.5135 35.0281 42.8283 35.2027 43.134 35.1123Z" fill="#0F62FE"/>
<path d="M38.8012 25.4576C39.5638 25.3245 40.298 25.1745 40.9827 25.011C41.2889 24.9381 41.4782 24.6304 41.405 24.3242C41.3321 24.0174 41.0252 23.8306 40.7182 23.9019C40.0561 24.0597 39.3453 24.205 38.6055 24.3339C38.2951 24.3882 38.0874 24.6834 38.1413 24.9938C38.1945 25.2979 38.4829 25.5112 38.8012 25.4576Z" fill="#0F62FE"/>
<path d="M43.1341 24.4215C43.8232 24.2153 44.4552 23.9913 45.0129 23.7561C45.3031 23.6337 45.4391 23.2992 45.3166 23.0092C45.1942 22.719 44.8601 22.5824 44.5697 22.7054C44.0498 22.9248 43.4569 23.1348 42.8073 23.3291C42.5056 23.4193 42.3342 23.7372 42.4245 24.0388C42.515 24.3413 42.8336 24.512 43.1341 24.4215Z" fill="#0F62FE"/>
<path d="M38.8012 14.7705C39.5638 14.6374 40.298 14.4874 40.9827 14.3239C41.2889 14.251 41.4782 13.9433 41.405 13.6371C41.3321 13.3305 41.0252 13.1423 40.7182 13.2147C40.0561 13.3726 39.3453 13.5179 38.6055 13.6468C38.2951 13.701 38.0874 13.9962 38.1413 14.3067C38.1945 14.6108 38.4829 14.8241 38.8012 14.7705Z" fill="#0F62FE"/>
<path d="M43.1341 13.7341C43.8216 13.5283 44.4538 13.3042 45.0129 13.0683C45.3031 12.9459 45.4391 12.6114 45.3166 12.3214C45.1942 12.0316 44.8601 11.8952 44.5697 12.0176C44.0482 12.2376 43.4552 12.4475 42.8073 12.6415C42.5056 12.7318 42.3342 13.0497 42.4245 13.3512C42.515 13.6539 42.8336 13.8245 43.1341 13.7341Z" fill="#0F62FE"/>
</svg>

<svg xmlns="http://www.w3.org/2000/svg" width="60" height="60" fill="none" viewBox="0 0 60 60"><path fill="#0f62fe" d="M14.667 43.6a2.335 2.335 0 0 0-2.258-1.766 2.34 2.34 0 0 0-2.337 2.337 2.34 2.34 0 0 0 2.337 2.337c1.09 0 2.002-.755 2.258-1.767h6.46a.57.57 0 0 0 .571-.57v-4.857q.984.142 2.008.248V50.38h-5.89a2.335 2.335 0 0 0-2.258-1.766 2.34 2.34 0 0 0-2.337 2.336 2.34 2.34 0 0 0 2.337 2.337c1.09 0 2.002-.754 2.258-1.767h6.46a.57.57 0 0 0 .57-.57V39.67q1.158.098 2.336.15v16.35h-5.89a2.335 2.335 0 0 0-2.258-1.766 2.34 2.34 0 0 0-2.337 2.337 2.34 2.34 0 0 0 2.337 2.337c1.09 0 2.002-.755 2.258-1.767h6.46a.57.57 0 0 0 .57-.57v-16.88a63 63 0 0 0 3.357 0v16.88c0 .315.256.57.57.57h6.46a2.335 2.335 0 0 0 2.259 1.767 2.34 2.34 0 0 0 2.337-2.338 2.34 2.34 0 0 0-2.337-2.336c-1.09 0-2.002.754-2.258 1.766h-5.89V39.82a61 61 0 0 0 2.335-.15v11.282c0 .315.255.57.57.57h6.461a2.335 2.335 0 0 0 2.258 1.767 2.34 2.34 0 0 0 2.337-2.337 2.34 2.34 0 0 0-2.337-2.337c-1.09 0-2.002.755-2.258 1.767h-5.89V39.56a52 52 0 0 0 2.008-.247v4.857c0 .315.255.57.57.57h6.46a2.336 2.336 0 0 0 2.26 1.767 2.34 2.34 0 0 0 2.336-2.337 2.34 2.34 0 0 0-2.337-2.337c-1.09 0-2.002.754-2.258 1.767h-5.89v-4.467c5.094-.867 8.94-2.474 8.94-4.749v-6.592c0-.757-.434-1.439-1.191-2.045.76-.608 1.191-1.293 1.191-2.052v-6.59c0-.758-.434-1.44-1.191-2.046.76-.608 1.191-1.292 1.191-2.052v-6.59c0-3.572-9.472-5.499-18.384-5.499S11.617 2.845 11.617 6.417v6.591c0 .759.43 1.442 1.188 2.05-.757.607-1.188 1.29-1.188 2.047v6.591c0 .76.43 1.443 1.19 2.05-.758.608-1.19 1.29-1.19 2.047v6.592c0 2.275 3.846 3.882 8.94 4.75V43.6zm-2.258 1.767a1.197 1.197 0 0 1 0-2.393 1.198 1.198 0 0 1 0 2.393m3.149 6.78a1.197 1.197 0 1 1 .001-2.395 1.197 1.197 0 0 1-.001 2.396m3.476 5.791a1.198 1.198 0 0 1 0-2.393 1.198 1.198 0 0 1 0 2.393m21.934-2.393a1.198 1.198 0 0 1 0 2.393c-.66 0-1.197-.537-1.197-1.196 0-.66.537-1.197 1.197-1.197m3.476-5.79a1.197 1.197 0 0 1 0 2.393 1.198 1.198 0 0 1 0-2.393m3.149-6.78a1.197 1.197 0 1 1-.001 2.395 1.197 1.197 0 0 1 .001-2.396M30 2.057c10.162 0 17.244 2.297 17.244 4.359S40.163 10.775 30 10.775 12.757 8.478 12.757 6.417c0-2.062 7.082-4.359 17.244-4.359m-17.244 10.95V8.425c2.774 2.28 10.182 3.49 17.244 3.49s14.47-1.21 17.244-3.49v4.583c0 2.062-7.082 4.358-17.244 4.358s-17.244-2.296-17.244-4.358m1.035 2.699c3.31 1.832 9.898 2.8 16.209 2.8 6.31 0 12.898-.968 16.208-2.8.673.459 1.036.934 1.036 1.398 0 2.062-7.082 4.359-17.244 4.359s-17.244-2.297-17.244-4.359c0-.464.363-.94 1.035-1.398m-1.035 7.99v-4.583c2.774 2.279 10.182 3.49 17.244 3.49s14.47-1.211 17.244-3.49v4.582c0 2.062-7.082 4.359-17.244 4.359s-17.244-2.297-17.244-4.359m1.037 2.7c3.311 1.83 9.897 2.798 16.207 2.798 6.306 0 12.889-.966 16.201-2.796.672.458 1.043.931 1.043 1.395 0 2.061-7.082 4.358-17.244 4.358s-17.244-2.297-17.244-4.358c0-.464.366-.94 1.037-1.398m-1.037 7.988V29.8c2.774 2.28 10.182 3.49 17.244 3.49s14.47-1.21 17.244-3.49v4.583c0 2.062-7.082 4.358-17.244 4.358s-17.244-2.297-17.244-4.358"/><path fill="#0f62fe" d="M38.801 36.146a37 37 0 0 0 2.181-.447.57.57 0 1 0-.264-1.109 36 36 0 0 1-2.113.432.57.57 0 0 0 .196 1.124m4.333-1.034a19 19 0 0 0 1.879-.665.57.57 0 0 0-.443-1.05c-.525.22-1.118.43-1.763.623a.57.57 0 0 0 .327 1.092m-4.333-9.654a36 36 0 0 0 2.182-.447.57.57 0 1 0-.265-1.11c-.662.159-1.373.304-2.113.433a.57.57 0 0 0 .196 1.124m4.333-1.036c.69-.207 1.321-.43 1.879-.666a.57.57 0 1 0-.443-1.05 17 17 0 0 1-1.763.623.57.57 0 0 0 .327 1.093m-4.333-9.652a36 36 0 0 0 2.182-.446.57.57 0 1 0-.265-1.11c-.662.159-1.373.304-2.113.433a.57.57 0 0 0 .196 1.124m4.333-1.037c.688-.206 1.32-.43 1.879-.666a.57.57 0 1 0-.443-1.05c-.522.22-1.115.43-1.763.624a.57.57 0 0 0 .327 1.092"/></svg>
